map-marker-star.svg

<svg fill="currentColor" viewBox="0 0 24 24"><path d="M12 2C8.1 2 5 5.1 5 9c0 5.2 7 13 7 13s7-7.8 7-13c0-3.9-3.1-7-7-7m2.5 11L12 11.5 9.5 13l.7-2.8L8 8.3l2.9-.2L12 5.4 13.1 8l2.9.3-2.2 1.9z"/></svg>

<svg  viewBox="0 0 24 24" fill="currentColor"><path  d="M12 2C8.1 2 5 5.1 5 9C5 14.2 12 22 12 22S19 14.2 19 9C19 5.1 15.9 2 12 2M14.5 13L12 11.5L9.5 13L10.2 10.2L8 8.3L10.9 8.1L12 5.4L13.1 8L16 8.3L13.8 10.2L14.5 13Z"/></svg>
